COLOR/action 16/16/object-rows.svg

<svg height="16" viewBox="0 0 16 16" width="16" xmlns="http://www.w3.org/2000/svg"><path d="m14 3h-12v2h12zm0 4h-12v2h12zm0 4h-12v2h12z" fill="#1d99f3"/><path d="m2 3v.5h12v-.5zm0 4v.5h12v-.5zm0 4v.5h12v-.5z" fill="#fff" opacity=".3"/><path d="m14 13v-.5h-12v.5zm0-4v-.5h-12v.5zm0-4v-.5h-12v.5z" opacity=".2"/></svg>

<?xml version="1.0" encoding="UTF-8" standalone="no"?>
<svg
   xmlns:dc="http://purl.org/dc/elements/1.1/"
   xmlns:cc="http://creativecommons.org/ns#"
   xmlns:rdf="http://www.w3.org/1999/02/22-rdf-syntax-ns#"
   xmlns:svg="http://www.w3.org/2000/svg"
   xmlns="http://www.w3.org/2000/svg"
   xmlns:sodipodi="http://sodipodi.sourceforge.net/DTD/sodipodi-0.dtd"
   xmlns:inkscape="http://www.inkscape.org/namespaces/inkscape"
   height="16"
   viewBox="0 0 16 16"
   width="16"
   version="1.1"
   id="svg4"
   sodipodi:docname="object-columns.svg"
   inkscape:version="0.92.4 (5da689c313, 2019-01-14)">
  <metadata
     id="metadata10">
    <rdf:RDF>
      <cc:Work
         rdf:about="">
        <dc:format>image/svg+xml</dc:format>
        <dc:type
           rdf:resource="http://purl.org/dc/dcmitype/StillImage" />
        <dc:title></dc:title>
      </cc:Work>
    </rdf:RDF>
  </metadata>
  <defs
     id="defs8" />
  <sodipodi:namedview
     pagecolor="#ffffff"
     bordercolor="#666666"
     borderopacity="1"
     objecttolerance="10"
     gridtolerance="10"
     guidetolerance="10"
     inkscape:pageopacity="0"
     inkscape:pageshadow="2"
     inkscape:window-width="1920"
     inkscape:window-height="1016"
     id="namedview6"
     showgrid="false"
     inkscape:zoom="14.75"
     inkscape:cx="8"
     inkscape:cy="8"
     inkscape:window-x="0"
     inkscape:window-y="27"
     inkscape:window-maximized="1"
     inkscape:current-layer="svg4" />
  <path
     d="M 14,3 H 2 v 2 h 12 z m 0,4 H 2 v 2 h 12 z m 0,4 H 2 v 2 h 12 z"
     id="path2"
     style="fill:#1d99f3;fill-opacity:1"
     inkscape:connector-curvature="0" />
  <path
     style="fill:#ffffff;fill-opacity:1;opacity:0.3"
     d="M 2 3 L 2 3.5 L 14 3.5 L 14 3 L 2 3 z M 2 7 L 2 7.5 L 14 7.5 L 14 7 L 2 7 z M 2 11 L 2 11.5 L 14 11.5 L 14 11 L 2 11 z "
     id="path858" />
  <path
     id="path863"
     d="M 14,13 V 12.5 H 2 V 13 Z M 14,9 V 8.5 H 2 V 9 Z M 14,5 V 4.5 H 2 V 5 Z"
     style="opacity:0.2;fill:#000000;fill-opacity:1"
     inkscape:connector-curvature="0" />
</svg>
